lib/brands/icons/google-unverified.svg

<svg xmlns="http://www.w3.org/2000/svg" fill="none" aria-hidden="true" viewBox="0 0 48 48"><g id="google-unverified-Icon"><path id="Vector" fill="#CCCCCC" d="M33.6685 37.0423C31.2854 39.4326 28.3393 41.1965 25.0634 42C16.611 39.9294 10.3357 31.451 10.3357 22.3621V13.7037L6.84814 10.2205L9.61283 7.45434L41.1533 38.9963L38.3901 41.761L33.6685 37.0423ZM22.9827 26.355L21.7875 27.5502L17.5584 23.3196L15.243 25.6351L21.7875 32.1796L25.2981 28.669L22.9827 26.355ZM30.767 23.2016L38.0805 30.5121C39.1792 27.975 39.7868 25.1973 39.7868 22.3621V12.5445L25.0634 6L17.102 9.5365L28.453 20.8847L32.5641 16.7736L34.8795 19.0905L30.767 23.2016Z"/></g></svg>

<svg xmlns="http://www.w3.org/2000/svg" fill="none" aria-hidden="true" viewBox="0 0 48 48"><path fill="#CCC" d="M33.669 37.042c-2.383 2.39-5.33 4.154-8.605 4.958-8.453-2.07-14.728-10.549-14.728-19.638v-8.658L6.848 10.22l2.765-2.766 31.54 31.542-2.763 2.765-4.721-4.719ZM22.983 26.355l-1.195 1.195-4.23-4.23-2.315 2.315 6.545 6.545 3.51-3.511-2.315-2.314Zm7.784-3.153 7.314 7.31a20.549 20.549 0 0 0 1.706-8.15v-9.817L25.064 6l-7.962 3.537 11.351 11.348 4.111-4.111 2.316 2.316-4.113 4.112Z"/></svg>
